X:41
T:Providence, The
S:Trad. arr. Paddy O'Brien 
R:reel
E:9
I:speed 300
M:C|
K:D
EDEF DEFA|~d2 fd gdfd|ed(3Bcd AdBA|~B2AF GFED|\
EDEF DEFA|~d2 fd gdfd|ed (3Bcd AdBA|~B2AG FD D2:|\
e|fd~d2 fdad|fd~d2 ecAg|fd~d2 fdad|ceag fdde|\
fgaf gfec|dBAF GFGB|~A2 GB ABde|(3fga eg fdd:|**

